X: 19762
T: Jenny's Chickens
R: reel
M: 4/4
K: Aminor
e3d ed (3Bcd|e3g dG (3Bcd|e3g ed (3Bcd|e2 ge dG (3Bcd|
e3g ed (3Bcd|e3B d2 (3Bcd|e3g ed (3Bcd|efge dG (3Bcd||
eAAG A3d|eA A2 dG (3Bcd|eAAG A3d|efge dG (3Bcd|
eA A2 eAcA|eA A2 dG (3Bcd|eAAG A3d|efge dGBG||
A2 a2 gafa|efge dG (3Bcd|A2 a2 gafa|efge dG (3Bcd|
A2 a2 gafa|efge dG (3Bcd|eg g2 ed (3Bcd|efge dG (3Bcd||

